X:1
T:Minuet in rondo
T:Gavotte in rondo
T:Partita in E major
T:Bach
C:Bach
%%score ( 1 2 )
L:1/8
Q:1/4=105
M:4/4
K:E
V:1 treble nm="Piano" snm="Pno."
V:2 treble 
V:1
 [EB]2 g2 | T[Ag]2 (fe) f2 a2 | [Ba]4 (bg)(af) | (Bf/g/) af (ge)(fd) | (eB)GE GBeg | (Ag)fe fgaf | %6
 [Ba]4 [EB]2 g2 | [Ac]2 f2 [B,F]2 d2 | !fermata![Ee]4 :|!mf! [EB]2 g2 | c2 (c^B) ((ce))(d^B) | %11
 ^B2 c2 (cd)eg | (cd)ea (df)ec | (^Bd)(GF) EGce | (gab)c ^Ecgb | (bg(a)f) (A^B)df | fdec G2 ^B2 | %17
!f! C4!mp! [EB]2 g2 | T[Ag]2 (fe) f2 a2 | [Ba]4 (bg)(af) | (Bf/g/) af (ge)(fd) | (eB)GE GBeg | %22
 (Ag)fe fgaf | [Ba]4!p! [EB]2 g2 | [Ac]2 f2 [B,F]2 d2 | [Ee]4!mp! EFGA | B2 B2 B2 e2 | B4 z4 | %28
 z4 z4 | z4 z4 | f2 f2 f2 b2 | f4 z4 | z4 z4 | z4 e2 e2 | e4 e2 e2 | [Fe]4!mf! (^ae)(c'e) | %36
 (Fe^a)e (^ae)(^c'e) | [Fe]4!f! [B,F]2 d2 | T[Ed]2 (cB) c2 e2 | [Fe]2 dc (def)d | BGEe Tc3 B | %41
 [B,FB]4 [EB]2 g2 | T[Ag]2 (fe) f2 a2 | [Ba]4 (bg)(af) | (Bf/g/) af (ge)(fd) | (eB)GE GBeg | %46
 (Ag)fe fgaf | [Ba]4!p! [EB]2 g2 | [Ac]2 f2 [B,F]2 d2 | [Ee]4 EGBe | (Fe)=dc dFGd | cBAG Fcfa | %52
 (Ba)gf g^ef^B | (cf)^ef gabg | (ac)FG ABce | (=dF)B,C =DEFA | (GB)EF GAB=d | (cB)Ac f^efc | %58
 (^Ac=e)=g f=e=dc | (=dcB)f b^abd | (^Ecb)=d' c'bag | (agf)a B=d(ag) | Ac(gf) G=B(fe) | %63
 FA(e=d) ^E=dcB |!f! Acfg Tg3 f | [Fcf]4!mp! [EBe]2 g2 | T[Ag]2 (fe) f2 a2 | [Ba]4 (bg)(af) | %68
 (Bf/g/) af (ge)(fd) | (eB)GE GBeg | (Ag)fe fgaf | [Ba]4!p! [EB]2 g2 | [Ac]2 f2 [B,F]2 d2 | %73
 [Ee]4!f! [eg][df] [eg]2 | ([Ac][G^B]) [Ac]2 [df][ce] [df]2 | [G^B]4!p! EGce | (FA)(df) (GB)(^eg) | %77
 g2 f2 edec | dB [Ge]2 dc f2 | [B,FBe]dcB [B,Fd]c d2 | [Edg]^^f g2 c^B z2 | %81
!f! [Dc^a]4!p! (g^^f)gb | (g^^f)gb (g^^f)gb |!f! g4 z z g2 | g4 z z g2 |!p! g4 z z g2 | g4 z z g2 | %87
!f! g8 | e4 z4 | (D^E)^^FG ^ABcd | (ed^^cd e)d^^cd | (^^F^A^ce d)^^f^ac' | %92
 b^a/g/ ^^fg!f! (3(Bcd) (3(^cB)^A | G4!mp! [EB]2 g2 | T[Ag]2 (fe) f2 a2 | [Ba]4 (bg)(af) | %96
 (Bf/g/) af (ge)(fd) | (eB)GE GBeg | (Ag)fe fgaf | [Ba]4!p! [EB]2 g2 | [Ac]2 f2 [B,F]2 d2 | %101
 !fermata![Ee]4 z4 |] %102
V:2
 x4 | x8 | x8 | x8 | x8 | x8 | x8 | x8 | x4 :| x4 | A2 z2 G2 z2 | F4 E2 z2 | F2 z2 z2 z2 | x8 | %14
 x8 | x8 | x8 | x8 | x8 | x8 | x8 | x8 | x8 | x8 | x8 | x8 | z z (EF) (GF)(GF) | (GF)GE cA(de) | %28
 BG(de) AF(de) | (GF)EF GBeg | z z (Bc) (dc)(dc) | (dc)dB ge(^ab) | fd(^ab) ec(ab) | %33
 (ed)(cB) (cd)(ed) | (cB)(^AB) (cd)(ec) | x8 | x8 | x8 | x8 | x8 | z2 z2 F4 | z8 | x8 | x8 | x8 | %45
 x8 | x8 | x8 | x8 | x8 | x8 | x8 | x8 | x8 | x8 | x8 | x8 | x8 | x8 | x8 | x8 | x8 | x8 | x8 | %64
 x4 c4 | x8 | x8 | x8 | x8 | x8 | x8 | x8 | x8 | x8 | x8 | x8 | x8 | A4 ^A z z2 | x4 F2 [Fc]2 | %79
 x4 z4 | x4 E2 c2 | x4 B z z2 | c z z2 d z z2 | ecec Gcec | dBdB GBdB | ecec Gcec | dBdB GBdB | %87
 dBdB cBcB | ^Ac^Ac ^^FA^^F^A | x8 | x8 | x8 | x8 | x8 | x8 | x8 | x8 | x8 | x8 | x8 | x8 | x8 |] %102

